lib/flags/l/CD.svg

<svg xmlns="http://www.w3.org/2000/svg" fill="none" viewBox="0 0 32 24"><mask id="CD_svg__a" width="32" height="24" x="0" y="0" mask-type="alpha" maskUnits="userSpaceOnUse"><path fill="#fff" d="M0 0H32V24H0z"/></mask><g mask="url(#CD_svg__a)"><path fill="#3195F9" fill-rule="evenodd" d="M0 0V24H32V0H0Z" clip-rule="evenodd"/><mask id="CD_svg__b" width="32" height="24" x="0" y="0" mask-type="alpha" maskUnits="userSpaceOnUse"><path fill="#fff" fill-rule="evenodd" d="M0 0V24H32V0H0Z" clip-rule="evenodd"/></mask><g mask="url(#CD_svg__b)"><path fill="#E31D1C" stroke="#FECA00" stroke-width="2.5" d="M-1.82168 25.4392L-1.12772 26.4789L-0.0880487 25.7849L36.1729 1.58147L37.2126 0.887505L36.5186 -0.152167L34.2979 -3.47912L33.604 -4.51879L32.5643 -3.82483L-3.69665 20.3786L-4.73632 21.0726L-4.04236 22.1123L-1.82168 25.4392Z"/><path fill="#FECA00" fill-rule="evenodd" d="M4.93065 8.60629L1.44503 11.024L2.55881 6.88304L0 4.23781L3.46478 4.09478L4.93065 0L6.39653 4.09478H9.85541L7.3025 6.88304L8.58104 10.7796L4.93065 8.60629Z" clip-rule="evenodd"/></g></g></svg>

<svg xmlns="http://www.w3.org/2000/svg" fill="none" viewBox="0 0 32 24"><mask id="CD_svg__a" width="32" height="24" x="0" y="0" maskUnits="userSpaceOnUse"><path fill="#fff" d="M0 0h32v24H0z"/></mask><g mask="url(#CD_svg__a)"><path fill="#3195F9" fill-rule="evenodd" d="M0 0v24h32V0H0z" clip-rule="evenodd"/><mask id="CD_svg__b" width="32" height="24" x="0" y="0" maskUnits="userSpaceOnUse"><path fill="#fff" fill-rule="evenodd" d="M0 0v24h32V0H0z" clip-rule="evenodd"/></mask><g mask="url(#CD_svg__b)"><path fill="#E31D1C" stroke="#FECA00" stroke-width="2.5" d="M-1.822 25.44l.694 1.039 1.04-.694L36.172 1.58l1.04-.693-.693-1.04-2.221-3.327-.694-1.04-1.04.694-36.26 24.204-1.04.694.694 1.04 2.22 3.326z"/><path fill="#FECA00" fill-rule="evenodd" d="M4.93 8.606l-3.485 2.418 1.114-4.141L0 4.238l3.465-.143L4.93 0l1.466 4.095h3.458L7.302 6.883l1.279 3.897-3.65-2.174z" clip-rule="evenodd"/></g></g></svg>
